X: 241
M: 2/2
L: 1/8
K: G
|: "2.F."DEFG |\
|: "1.F."cBA^G |\
|: B,2C2 |\
"2.F."D4 E2D2 | C2B,2 A,2B,2 | C4 D2C2 | B,2A,2 G,2A,2 |\

